X:555
T: Swaggering Rake
T: Port na Buaice\'ala
S: B.Breathnach:"Ceol Rince na hEireann" IV/39
Z: B.Black
L: 1/8
M: 9/8
R: slipjig
K: Edor
B2A GEF G2A|B2A Bee dBA|ABA GEF G2A|B2A GAB dBA :|
Bee efg a3|Bee efe dBA|Bee efg a3|bag ege dBA :|
